src/img/channel/channel_44.svg

<svg fill="none" height="100" viewBox="0 0 114 100" width="114" xmlns="http://www.w3.org/2000/svg"><g fill="#fff"><path d="m56.5201.00011306c-19.7828 0-35.8204 16.03758694-35.8204 35.83088694 0 19.7828 16.0376 35.8204 35.8204 35.8204s35.8204-16.0376 35.8204-35.8204c0-19.7933-16.0376-35.83088694-35.8204-35.83088694z"/><path d="m24.8465 86.1374h-.0523v7.9195c0 .9729-.3453 1.8621-.973 2.5003-.5963.6277-1.4018.9729-2.2597.9729-.8578 0-1.6633-.3452-2.2597-.9729-.6277-.6382-.9624-1.5274-.9624-2.5003v-7.9195h-2.584v7.9195c0 1.7261.5649 3.2221 1.6529 4.3101 1.0566 1.0566 2.5317 1.632 4.1532 1.632 1.6216 0 3.0967-.5754 4.1533-1.632 1.088-1.088 1.6634-2.584 1.6634-4.3101v-7.9195h-.0523"/><path d="m46.7565 96.2548c-.7846.8264-1.8935 1.2763-3.1175 1.2763-1.2345 0-2.3434-.4499-3.128-1.2763-.7951-.8265-1.224-2.0087-1.224-3.3164s.4289-2.5003 1.224-3.3267c.7846-.8265 1.8935-1.2763 3.128-1.2763 1.224 0 2.3329.4498 3.1175 1.2763.7951.8264 1.224 2.019 1.224 3.3267s-.4289 2.4899-1.224 3.3164zm1.8099-8.4321c-1.3077-1.2658-3.0757-1.9667-4.9274-1.9667-1.8726 0-3.6302.7009-4.9379 1.9667-1.3704 1.3182-2.1132 3.128-2.1132 5.1157 0 1.9773.7428 3.7871 2.1132 5.1053 1.3077 1.2658 3.0653 1.9563 4.9379 1.9563 1.8517 0 3.6197-.6905 4.9274-1.9563 1.3704-1.3182 2.1132-3.128 2.1132-5.1053 0-1.9877-.7428-3.7975-2.1132-5.1157z"/><path d="m58.4568 85.856c-1.6216 0-3.0967.5754-4.1533 1.6425-1.0775 1.088-1.6634 2.584-1.6634 4.3101v7.9194h2.584v-7.9194c0-.9729.3453-1.8621.9625-2.5108.6068-.6276 1.4123-.9624 2.2702-.9624.8578 0 1.6634.3348 2.2597.9624.6277.6487.9729 1.5379.9729 2.5108v7.9194h2.584v-7.9194c0-1.7261-.5754-3.2221-1.6634-4.3101-1.0566-1.0671-2.5317-1.6425-4.1532-1.6425z"/><path d="m97.1861 86.1374h-.0523v8.6518c0 1.6634-.9311 2.7409-2.3643 2.7409-1.7157 0-2.584-1.0566-2.584-3.1385v-8.2542h-2.584v8.2542c0 2.0819-.8684 3.1385-2.5841 3.1385-1.4332 0-2.3538-1.0775-2.3538-2.7409v-8.6518h-2.584v9.2062c0 2.6154 2.1446 4.6554 4.8855 4.6554 1.653 0 3.0757-.68 3.9336-1.8621.8578 1.1821 2.2806 1.8621 3.9335 1.8621 2.7305 0 4.8856-2.04 4.8856-4.6554v-9.2062h-.0523"/><path d="m107.604 91.4999c-1.653-.4603-3.076-.8578-3.076-1.768.052-.7637.304-1.1299 1.548-1.1299h6.288v-2.4689h-5.869c-3.003 0-4.666 1.3182-4.666 3.7139 0 1.2135.575 2.1655 1.758 2.8978 1.014.6277 2.353 1.0148 3.536 1.36 1.726.4917 3.222.9207 3.222 1.9145 0 .8578-.481 1.2345-1.548 1.2345h-6.968v2.4794h6.968c1.234 0 2.28-.3244 3.023-.9416.795-.6591 1.224-1.6634 1.224-2.8769 0-2.8979-3.013-3.7348-5.44-4.4148z"/><path d="m29.6265 91.2876v8.3274h2.4061v-8.3274c0-1.5379.4708-3.2954 4.1533-3.2954h.0627v-2.4062h-.0627c-5.7016 0-6.5594 3.5779-6.5594 5.7016z"/><path d="m11.2361 94.9763-.0523-.0209-.0209.0523c-.3766.7009-.9311 1.3181-1.63202 1.7575-2.176 1.3809-5.07386.7219-6.44432-1.4541-.66954-1.0462-.88923-2.3016-.60677-3.5151.272-1.224 1.00431-2.2597 2.05047-2.9293 1.55877-.9729 3.536-.952 5.06339.0523l-4.12185 3.3896-.05231.0314.04184.0418 1.41232 1.7576.03138.0523.04185-.0419 6.05722-4.9692.0314-.0314-.0209-.0419-.0419-.0523c-1.0043-1.5797-2.563-2.6781-4.40428-3.0861-1.83078-.4185-3.71386-.0942-5.29355.9101-1.5797.9939-2.688625 2.5527-3.096626 4.3834-.418463 1.8413-.0941541 3.7243.910156 5.3145 2.07139 3.2745 6.4234 4.2581 9.6979 2.1865 1.0357-.6591 1.8831-1.5693 2.4584-2.6573l.0314-.0523-.0523-.0314"/><path d="m77.3931 94.9763-.0523-.0209-.0314.0523c-.3661.7009-.9311 1.3181-1.6215 1.7575-2.176 1.3809-5.0739.7219-6.4548-1.4541-.6591-1.0462-.8788-2.3016-.6068-3.5256.2825-1.2135 1.0148-2.2492 2.0609-2.9188 1.5483-.9729 3.5256-.952 5.0634.0523l-4.1323 3.3896-.0418.0314.0418.0418 1.4123 1.7576.0314.0523.0523-.0419 6.0363-4.9692.0523-.0314-.0418-.0419-.0314-.0523c-2.0714-3.2744-6.4234-4.2474-9.6979-2.176-1.5901.9939-2.6886 2.5527-3.0966 4.3834-.4184 1.8413-.0941 3.7243.8997 5.3145 2.0819 3.2745 6.4339 4.2581 9.7084 2.1865 1.0356-.6591 1.883-1.5693 2.4584-2.6573l.0314-.0523-.0523-.0314"/></g></svg>

<svg width="114" height="100" viewBox="0 0 114 100" fill="none" xmlns="http://www.w3.org/2000/svg">
<path d="M56.5201 0.000113062C36.7373 0.000113062 20.6997 16.0377 20.6997 35.831C20.6997 55.6138 36.7373 71.6514 56.5201 71.6514C76.3029 71.6514 92.3405 55.6138 92.3405 35.831C92.3405 16.0377 76.3029 0.000113062 56.5201 0.000113062Z" fill="white"/>
<path d="M24.8465 86.1374H24.7942V94.0569C24.7942 95.0298 24.4489 95.919 23.8212 96.5572C23.2249 97.1849 22.4194 97.5301 21.5615 97.5301C20.7037 97.5301 19.8982 97.1849 19.3018 96.5572C18.6741 95.919 18.3394 95.0298 18.3394 94.0569V86.1374H15.7554V94.0569C15.7554 95.783 16.3203 97.279 17.4083 98.367C18.4649 99.4236 19.94 99.999 21.5615 99.999C23.1831 99.999 24.6582 99.4236 25.7148 98.367C26.8028 97.279 27.3782 95.783 27.3782 94.0569V86.1374H27.3259" fill="white"/>
<path d="M46.7565 96.2548C45.9719 97.0812 44.863 97.5311 43.639 97.5311C42.4045 97.5311 41.2956 97.0812 40.511 96.2548C39.7159 95.4283 39.287 94.2461 39.287 92.9384C39.287 91.6307 39.7159 90.4381 40.511 89.6117C41.2956 88.7852 42.4045 88.3354 43.639 88.3354C44.863 88.3354 45.9719 88.7852 46.7565 89.6117C47.5516 90.4381 47.9805 91.6307 47.9805 92.9384C47.9805 94.2461 47.5516 95.4283 46.7565 96.2548ZM48.5664 87.8227C47.2587 86.5569 45.4907 85.856 43.639 85.856C41.7664 85.856 40.0088 86.5569 38.7011 87.8227C37.3307 89.1409 36.5879 90.9507 36.5879 92.9384C36.5879 94.9157 37.3307 96.7255 38.7011 98.0437C40.0088 99.3095 41.7664 100 43.639 100C45.4907 100 47.2587 99.3095 48.5664 98.0437C49.9368 96.7255 50.6796 94.9157 50.6796 92.9384C50.6796 90.9507 49.9368 89.1409 48.5664 87.8227Z" fill="white"/>
<path d="M58.4568 85.856C56.8352 85.856 55.3601 86.4314 54.3035 87.4985C53.226 88.5865 52.6401 90.0825 52.6401 91.8086V99.728H55.2241V91.8086C55.2241 90.8357 55.5694 89.9465 56.1866 89.2978C56.7934 88.6702 57.5989 88.3354 58.4568 88.3354C59.3146 88.3354 60.1202 88.6702 60.7165 89.2978C61.3442 89.9465 61.6894 90.8357 61.6894 91.8086V99.728H64.2734V91.8086C64.2734 90.0825 63.698 88.5865 62.61 87.4985C61.5534 86.4314 60.0783 85.856 58.4568 85.856Z" fill="white"/>
<path d="M97.1861 86.1374H97.1338V94.7892C97.1338 96.4526 96.2027 97.5301 94.7695 97.5301C93.0538 97.5301 92.1855 96.4735 92.1855 94.3916V86.1374H89.6015V94.3916C89.6015 96.4735 88.7331 97.5301 87.0174 97.5301C85.5842 97.5301 84.6636 96.4526 84.6636 94.7892V86.1374H82.0796V95.3436C82.0796 97.959 84.2242 99.999 86.9651 99.999C88.6181 99.999 90.0408 99.319 90.8987 98.1369C91.7565 99.319 93.1793 99.999 94.8322 99.999C97.5627 99.999 99.7178 97.959 99.7178 95.3436V86.1374H99.6655" fill="white"/>
<path d="M107.604 91.4999C105.951 91.0396 104.528 90.6421 104.528 89.7319C104.58 88.9682 104.832 88.602 106.076 88.602H112.364V86.1331H106.495C103.492 86.1331 101.829 87.4513 101.829 89.847C101.829 91.0605 102.404 92.0125 103.587 92.7448C104.601 93.3725 105.94 93.7596 107.123 94.1048C108.849 94.5965 110.345 95.0255 110.345 96.0193C110.345 96.8771 109.864 97.2538 108.797 97.2538H101.829V99.7332H108.797C110.031 99.7332 111.077 99.4088 111.82 98.7916C112.615 98.1325 113.044 97.1282 113.044 95.9147C113.044 93.0168 110.031 92.1799 107.604 91.4999Z" fill="white"/>
<path d="M29.6265 91.2876V99.615H32.0326V91.2876C32.0326 89.7497 32.5034 87.9922 36.1859 87.9922H36.2486V85.586H36.1859C30.4843 85.586 29.6265 89.1639 29.6265 91.2876Z" fill="white"/>
<path d="M11.2361 94.9763L11.1838 94.9554L11.1629 95.0077C10.7863 95.7086 10.2318 96.3258 9.53088 96.7652C7.35488 98.1461 4.45702 97.4871 3.08656 95.3111C2.41702 94.2649 2.19733 93.0095 2.47979 91.796C2.75179 90.572 3.4841 89.5363 4.53026 88.8667C6.08903 87.8938 8.06626 87.9147 9.59365 88.919L5.4718 92.3086L5.41949 92.34L5.46133 92.3818L6.87365 94.1394L6.90503 94.1917L6.94688 94.1498L13.0041 89.1806L13.0355 89.1492L13.0146 89.1073L12.9727 89.055C11.9684 87.4753 10.4097 86.3769 8.56842 85.9689C6.73764 85.5504 4.85456 85.8747 3.27487 86.879C1.69517 87.8729 0.586245 89.4317 0.178244 91.2624C-0.240219 93.1037 0.0840899 94.9867 1.0884 96.5769C3.15979 99.8514 7.5118 100.835 10.7863 98.7634C11.822 98.1043 12.6694 97.1941 13.2447 96.1061L13.2761 96.0538L13.2238 96.0224" fill="white"/>
<path d="M77.3931 94.9763L77.3408 94.9554L77.3094 95.0077C76.9433 95.7086 76.3783 96.3258 75.6879 96.7652C73.5119 98.1461 70.614 97.4871 69.2331 95.3111C68.574 94.2649 68.3543 93.0095 68.6263 91.7855C68.9088 90.572 69.6411 89.5363 70.6872 88.8667C72.2355 87.8938 74.2128 87.9147 75.7506 88.919L71.6183 92.3086L71.5765 92.34L71.6183 92.3818L73.0306 94.1394L73.062 94.1917L73.1143 94.1498L79.1506 89.1806L79.2029 89.1492L79.1611 89.1073L79.1297 89.055C77.0583 85.7806 72.7063 84.8076 69.4318 86.879C67.8417 87.8729 66.7432 89.4317 66.3352 91.2624C65.9168 93.1037 66.2411 94.9867 67.2349 96.5769C69.3168 99.8514 73.6688 100.835 76.9433 98.7634C77.9789 98.1043 78.8263 97.1941 79.4017 96.1061L79.4331 96.0538L79.3808 96.0224" fill="white"/>
</svg>
